X: 66
T: Missa de septem doloribus / Sanctus
N: Derived from Rue1014d-Missa_de_septem_doloribus-Sanctus.krn
C: Pierre de la Rue
%%abc-version 2.0
%%abcx-abcm2ps-target-version 5.9.1 (29 Sep 2008)
%%abc-creator hum2abc beta
%%abcx-conversion-date 2019/02/17 08:01:12
%%abc-edited-by Jesse Rodin
%%abc-edited-by Chris Gage 05-23-2013
%%abcx-initial-encoding-date 2013/08/04/
%%humdrum-veritas 1701942811
%%humdrum-veritas-data 4036606683
%%linebreak <none>
%%barnumbers 0
L: 1/4
M: 4/2
Q: 1/2=120
V: 1 clef=treble
V: 2 clef=treble-8
V: 3 clef=treble-8
V: 4 clef=treble-8
V: 5 clef=bass
K: C
[V:1] z8 | 
[V:2] d8 | 
[V:3] z8 | 
[V:4] z8 | 
[V:5] z8 | 
[V:1] A8 | 
[V:2] f8 | 
[V:3] z8 | 
[V:4] z8 | 
[V:5] z8 | 
[V:1] c8 | 
[V:2] e4c4 | 
[V:3] z8 | 
[V:4] z8 | 
[V:5] z8 | 
[V:1] B4G4 | 
[V:2] d4B4 | 
[V:3] z8 | 
[V:4] z8 | 
[V:5] z8 | 
[V:1] A4F4 | 
[V:2] A2d4cB | 
[V:3] z8 | 
[V:4] z8 | 
[V:5] z8 | 
[V:1] E2A4GF | 
[V:2] c2A2c2d2 | 
[V:3] z8 | 
[V:4] z8 | 
[V:5] z8 | 
[V:1] G2E2G2A2 | 
[V:2] e6c2 | 
[V:3] z8 | 
[V:4] z8 | 
[V:5] z8 | 
[V:1] B4G2A2 | 
[V:2] d2e4c2 | 
[V:3] z8 | 
[V:4] z8 | 
[V:5] z8 | 
[V:1] B2c4BA | 
[V:2] d2e2f4 | 
[V:3] z8 | 
[V:4] z8 | 
[V:5] z8 | 
[V:1] G2C2C4 | 
[V:2] e8 | 
[V:3] z8 | 
[V:4] z8 | 
[V:5] z8 | 
[V:1] z2G2A2c2- | 
[V:2] e4z2c2 | 
[V:3] z8 | 
[V:4] z8 | 
[V:5] z8 | 
[V:1] cBAGA4 | 
[V:2] d2f4ed | 
[V:3] z8 | 
[V:4] z8 | 
[V:5] z8 | 
[V:1] G4z2G2 | 
[V:2] e2c2d2B2 | 
[V:3] z8 | 
[V:4] z8 | 
[V:5] z8 | 
[V:1] A2F2E2A2- | 
[V:2] A8 | 
[V:3] z8 | 
[V:4] z8 | 
[V:5] z8 | 
[V:1] AGFED2A2- | 
[V:2] z2d4f2- | 
[V:3] z8 | 
[V:4] z8 | 
[V:5] D,8 | 
[V:1] A2c4BA | 
[V:2] f2edc4 | 
[V:3] z8 | 
[V:4] A8 | 
[V:5] F,8 | 
[V:1] G8 | 
[V:2] z2e3fge | 
[V:3] z8 | 
[V:4] c8 | 
[V:5] E,4C,4 | 
[V:1] z2B3cdB | 
[V:2] fedcd4 | 
[V:3] z8 | 
[V:4] B4G4 | 
[V:5] D,4B,,4 | 
[V:1] cBAGA4- | 
[V:2] c3Bc2d2 | 
[V:3] A8- | 
[V:4] A4F4 | 
[V:5] A,,8- | 
[V:1] A2GFE4 | 
[V:2] e2d3^c^c2 | 
[V:3] A8- | 
[V:4] E8 | 
[V:5] A,,8 | 
[V:1] F3GA4 | 
[V:2] d8 | 
[V:3] A8 | 
[V:4] D4z2A2- | 
[V:5] z2D,4F,2- | 
[V:1] z8 | 
[V:2] z8 | 
[V:3] c8- | 
[V:4] A2c4BA | 
[V:5] F,2E,D,C,4- | 
[V:1] z8 | 
[V:2] z8 | 
[V:3] c4B4 | 
[V:4] G8 | 
[V:5] C,4z2E,2- | 
[V:1] z8 | 
[V:2] z8 | 
[V:3] G4A4 | 
[V:4] z4z2A2 | 
[V:5] E,F,G,E,F,E,D,C, | 
[V:1] z8 | 
[V:2] z8 | 
[V:3] F4E4 | 
[V:4] BcdBcBAG | 
[V:5] D,4C,4 | 
[V:1] z8 | 
[V:2] z2e3fge | 
[V:3] c8 | 
[V:4] A4G3E | 
[V:5] z2C,3D,E,C, | 
[V:1] z2B3cdB | 
[V:2] fedcd4 | 
[V:3] B4G4 | 
[V:4] F2E4D2 | 
[V:5] D,C,B,,A,,B,,4 | 
[V:1] cBAGA4 | 
[V:2] c8 | 
[V:3] A4F4 | 
[V:4] E4z4 | 
[V:5] A,,4z4 | 
[V:1] G8 | 
[V:2] z2e3fge | 
[V:3] E4c4 | 
[V:4] z2E2G3A | 
[V:5] z2C,3D,E,C, | 
[V:1] z2B3cdB | 
[V:2] fedcd4 | 
[V:3] B4G4 | 
[V:4] F2E4D2 | 
[V:5] D,C,B,,A,,B,,4 | 
[V:1] cBAGA4 | 
[V:2] c3Bc2d2 | 
[V:3] A4F4 | 
[V:4] E4A4 | 
[V:5] A,,4z4 | 
[V:1] G6EF | 
[V:2] e8- | 
[V:3] E8- | 
[V:4] B2G2B2c2- | 
[V:5] z8 | 
[V:1] GEA4^G2 | 
[V:2] e8 | 
[V:3] E8 | 
[V:4] c2BAB4 | 
[V:5] z8 | 
[V:1] A8 | 
[V:2] z2c3dec | 
[V:3] z8 | 
[V:4] A3GF2E2 | 
[V:5] z2A,,3B,,C,A,, | 
[V:1] z8 | 
[V:2] dcBAB4 | 
[V:3] z8 | 
[V:4] G2F3EE2 | 
[V:5] B,,A,,G,,F,,G,,4 | 
[V:1] z2A4A2 | 
[V:2] A8 | 
[V:3] c8 | 
[V:4] F8 | 
[V:5] F,,4F,,4- | 
[V:1] A4c4- | 
[V:2] z2A4A2 | 
[V:3] c4c4- | 
[V:4] F6F2 | 
[V:5] F,,2F,,2F,,4 | 
[V:1] c4B3G | 
[V:2] A4B2GB | 
[V:3] c4d4- | 
[V:4] C4G4 | 
[V:5] A,,4G,,4 | 
[V:1] A2B4G2 | 
[V:2] A2G3FDE | 
[V:3] d4d4 | 
[V:4] D8 | 
[V:5] F,,2G,,4B,,2 | 
[V:1] A2B2c3A | 
[V:2] F2G2E2A2 | 
[V:3] c2B2A4 | 
[V:4] z2D2C2F2 | 
[V:5] A,,2G,,2A,,2F,,2 | 
[V:1] B2d3cBA | 
[V:2] d3cBAG2 | 
[V:3] G8 | 
[V:4] D3ED2G2- | 
[V:5] G,,8 | 
[V:1] G4z4 | 
[V:2] d2d3cBA | 
[V:3] G4z2d2- | 
[V:4] G2FED2G2- | 
[V:5] G,,4G,,3A,, | 
[V:1] z4z2d2- | 
[V:2] G8 | 
[V:3] d2c4B2 | 
[V:4] GFE2D2G2 | 
[V:5] B,,2C,2G,,4 | 
[V:1] d2c3BB2 | 
[V:2] z4d4 | 
[V:3] c4d4 | 
[V:4] C4G4 | 
[V:5] A,,4G,,4 | 
[V:1] c3BG2c2 | 
[V:2] e4e2e2- | 
[V:3] z2c2B2A2 | 
[V:4] E3FG2A2 | 
[V:5] C,4z4 | 
[V:1] B2A2G2c2 | 
[V:2] e2A2B2c2 | 
[V:3] G2c2BGA2 | 
[V:4] E2F2GG2F | 
[V:5] z8 | 
[V:1] BGA2G2c2 | 
[V:2] zef2e2f2- | 
[V:3] G2c2B2A2 | 
[V:4] G2zFG2A2 | 
[V:5] z8 | 
[V:1] BAA4^G2 | 
[V:2] fecde4 | 
[V:3] dcBAB4 | 
[V:4] D2F2E4 | 
[V:5] z4z2E,2 | 
[V:1] A8- | 
[V:2] z4z2f2 | 
[V:3] A8- | 
[V:4] z2F2E2D2 | 
[V:5] F,2D,D,2C,D,2 | 
[V:1] A8 | 
[V:2] e2d2c2f2 | 
[V:3] A8- | 
[V:4] C2F2ECD2 | 
[V:5] A,,2D,2z2D,2 | 
[V:1] z2A2A3B | 
[V:2] ecd2c2f2 | 
[V:3] A8- | 
[V:4] C2F3ED2 | 
[V:5] A,,2D,E,F,G,A,2 | 
[V:1] c2A3GFE | 
[V:2] edd4^c2 | 
[V:3] A8 | 
[V:4] C2F2E4 | 
[V:5] A,,8 | 
[V:1] F8 ||  
[V:2] d8 ||  
[V:3] A8 ||  
[V:4] D8 ||  
[V:5] D,8 ||  
[V:1]  [K:C] [K:clef=treble][M:2/1]z4D4 | 
[V:2]  [K:C] [K:clef=treble-8][M:2/1]d8 | 
[V:3]  [K:C] [K:clef=treble-8][M:2/1]z8 | 
[V:4]  [K:C] [K:clef=treble-8][M:2/1]z8 | 
[V:5]  [K:C] [K:clef=bass][M:2/1]z8 | 
[V:1] F2G2A2B2- | 
[V:2] d4d4 | 
[V:3] z8 | 
[V:4] z8 | 
[V:5] z8 | 
[V:1] B2G4c2- | 
[V:2] e6c2 | 
[V:3] z8 | 
[V:4] z8 | 
[V:5] z8 | 
[V:1] cBAGA2GF | 
[V:2] c8 | 
[V:3] z8 | 
[V:4] z8 | 
[V:5] z8 | 
[V:1] E2G3FED | 
[V:2] z2e3dcB | 
[V:3] z8 | 
[V:4] z8 | 
[V:5] z8 | 
[V:1] E2DCB,2A,2 | 
[V:2] c2BAG2A2- | 
[V:3] z8 | 
[V:4] z8 | 
[V:5] z8 | 
[V:1] B,4z2G2 | 
[V:2] A2^G2A2c2- | 
[V:3] z8 | 
[V:4] z8 | 
[V:5] z8 | 
[V:1] A2c4BA | 
[V:2] cBAGA2GF | 
[V:3] z8 | 
[V:4] z8 | 
[V:5] z8 | 
[V:1] G8- | 
[V:2] E4z2B2 | 
[V:3] z8 | 
[V:4] z8 | 
[V:5] z8 | 
[V:1] G8 | 
[V:2] c2e4dc | 
[V:3] z8 | 
[V:4] z8 | 
[V:5] z8 | 
[V:1] z2c4B2 | 
[V:2] B2e4d2 | 
[V:3] z8 | 
[V:4] z8 | 
[V:5] z8 | 
[V:1] c2BAGFED | 
[V:2] e2dcB4 | 
[V:3] z8 | 
[V:4] z8 | 
[V:5] z8 | 
[V:1] C2c4B2 | 
[V:2] z2e4d2 | 
[V:3] z8 | 
[V:4] z8 | 
[V:5] z8 | 
[V:1] c2BAG4 | 
[V:2] e2dcBAGF | 
[V:3] z8 | 
[V:4] z8 | 
[V:5] z8 | 
[V:1] z2c4B2 | 
[V:2] E4z2e2- | 
[V:3] z8 | 
[V:4] z8 | 
[V:5] z8 | 
[V:1] c2BAGABc | 
[V:2] e2d2e2dc | 
[V:3] z8 | 
[V:4] z8 | 
[V:5] z8 | 
[V:1] B2A4^G2 | 
[V:2] dcBAB4 | 
[V:3] z8 | 
[V:4] z8 | 
[V:5] z8 | 
[V:1] A8- | 
[V:2] A4z2f2- | 
[V:3] z8 | 
[V:4] z8 | 
[V:5] z8 | 
[V:1] A8 | 
[V:2] f2edc2d2- | 
[V:3] z8 | 
[V:4] z8 | 
[V:5] z8 | 
[V:1] z4z2c2- | 
[V:2] dcc2d2e2 | 
[V:3] z8 | 
[V:4] z8 | 
[V:5] z8 | 
[V:1] c2BAG2A2- | 
[V:2] c4z2c2 | 
[V:3] z8 | 
[V:4] z8 | 
[V:5] z8 | 
[V:1] AGG2A2B2 | 
[V:2] d2e2f2d2 | 
[V:3] z8 | 
[V:4] z8 | 
[V:5] z8 | 
[V:1] G4z2G2 | 
[V:2] e2dcB2c2- | 
[V:3] z8 | 
[V:4] z8 | 
[V:5] z8 | 
[V:1] A2B2c2A2 | 
[V:2] cBAGA4 | 
[V:3] z8 | 
[V:4] z8 | 
[V:5] z8 | 
[V:1] B2G3FED | 
[V:2] G8 | 
[V:3] z8 | 
[V:4] z8 | 
[V:5] z8 | 
[V:1] E4D4 | 
[V:2] z2G3FGA | 
[V:3] z8 | 
[V:4] z8 | 
[V:5] z8 | 
[V:1] z2D3CDE | 
[V:2] BABcd2G2 | 
[V:3] z8 | 
[V:4] z8 | 
[V:5] z8 | 
[V:1] FEFGA2D2 | 
[V:2] z2d3cde | 
[V:3] z8 | 
[V:4] z8 | 
[V:5] z8 | 
[V:1] z2A3GAB | 
[V:2] f3ed2c2- | 
[V:3] z8 | 
[V:4] z8 | 
[V:5] z8 | 
[V:1] c3BA2G2 | 
[V:2] c2f4e2 | 
[V:3] z8 | 
[V:4] z8 | 
[V:5] z8 | 
[V:1] z2c4B2 | 
[V:2] d2cBA2d2 | 
[V:3] z8 | 
[V:4] z8 | 
[V:5] z8 | 
[V:1] A2GFE2G2 | 
[V:2] c2BAG4 | 
[V:3] z8 | 
[V:4] z8 | 
[V:5] z8 | 
[V:1] F2EDC2E2- | 
[V:2] z2G2A3F | 
[V:3] z8 | 
[V:4] z8 | 
[V:5] z8 | 
[V:1] EDD4^C2 | 
[V:2] GFEDE4 | 
[V:3] z8 | 
[V:4] z8 | 
[V:5] z8 | 
[V:1] D8 ||  
[V:2] D8 ||  
[V:3] z8 ||  
[V:4] z8 ||  
[V:5] z8 ||  
[V:1]  [K:C] [K:clef=treble][M:3/1]D6E2F2G2 | 
[V:2]  [K:C] [K:clef=treble-8][M:3/1]z12 | 
[V:3]  [K:C] [K:clef=treble-8][M:3/1]d12- | 
[V:4]  [K:C] [K:clef=treble-8][M:3/1]D4D6E2 | 
[V:5]  [K:C] [K:clef=bass][M:3/1]z12 | 
[V:1] A4B2c2d2B2 | 
[V:2] z4z4d4 | 
[V:3] d4d8 | 
[V:4] F4G8 | 
[V:5] z12 | 
[V:1] c6B2A4 | 
[V:2] e8e4- | 
[V:3] c8c4 | 
[V:4] C6D2E2F2 | 
[V:5] A,,6B,,2C,2D,2 | 
[V:1] G4A8 | 
[V:2] e4d8 | 
[V:3] B4A8 | 
[V:4] G4D8 | 
[V:5] E,4F,2G,2A,2F,2 | 
[V:1] D6E2F2G2 | 
[V:2] B6c2d2e2 | 
[V:3] G4d8 | 
[V:4] z12 | 
[V:5] G,8F,2E,2 | 
[V:1] A4B2c2d2B2 | 
[V:2] f8d4 | 
[V:3] d8d4 | 
[V:4] z12 | 
[V:5] D,8z4 | 
[V:1] c6B2A4 | 
[V:2] e8e4- | 
[V:3] c8c4 | 
[V:4] C6D2E2F2 | 
[V:5] A,,6B,,2C,2D,2 | 
[V:1] G4A8 | 
[V:2] e4d8 | 
[V:3] B4A8 | 
[V:4] G4D8 | 
[V:5] E,4F,2G,2A,2F,2 | 
[V:1] B6c2d2B2 | 
[V:2] B12 | 
[V:3] G12 | 
[V:4] d8d4 | 
[V:5] G,12 | 
[V:1] c6B2A4 | 
[V:2] z12 | 
[V:3] z12 | 
[V:4] c4A2B2c2A2 | 
[V:5] z12 | 
[V:1] G4F2G2A2F2 | 
[V:2] d8d4 | 
[V:3] z12 | 
[V:4] B4A8 | 
[V:5] z4z4D,4 | 
[V:1] G12 | 
[V:2] B4e8 | 
[V:3] G6A2B2G2 | 
[V:4] G12 | 
[V:5] E,6F,2G,2E,2 | 
[V:1] z12 | 
[V:2] A4d2e2f2d2 | 
[V:3] c4B2c2d2B2 | 
[V:4] z12 | 
[V:5] F,4D,8 | 
[V:1] G8G4 | 
[V:2] e12 | 
[V:3] c12 | 
[V:4] G8G4 | 
[V:5] C,12 | 
[V:1] A6G2F4 | 
[V:2] z12 | 
[V:3] z12 | 
[V:4] c4B2c2d2B2 | 
[V:5] z12 | 
[V:1] E4A8 | 
[V:2] z4z4d4 | 
[V:3] A8A4 | 
[V:4] c4F8 | 
[V:5] z12 | 
[V:1] G4E2F2G2E2 | 
[V:2] e4c2d2e2c2 | 
[V:3] B4G2A2B2G2 | 
[V:4] E12 | 
[V:5] z12 | 
[V:1] F4A8 | 
[V:2] d6e2f2d2 | 
[V:3] A4F8 | 
[V:4] z4z4A4 | 
[V:5] z12 | 
[V:1] G4A2B2c2A2 | 
[V:2] e4c2d2e2c2 | 
[V:3] E12 | 
[V:4] c8c4 | 
[V:5] C,6B,,2A,,4 | 
[V:1] _B4d8 | 
[V:2] d12 | 
[V:3] z4z4G4 | 
[V:4] _B6c2d2_B2 | 
[V:5] G,,4_B,,8 | 
[V:1] c4_B8 | 
[V:2] z12 | 
[V:3] C4E2F2G2E2 | 
[V:4] c4G2A2_B2G2 | 
[V:5] A,,4G,,8 | 
[V:1] A6G2F4 | 
[V:2] c8c4 | 
[V:3] F4F4F4 | 
[V:4] A12 | 
[V:5] F,,4F,6E,2 | 
[V:1] E4F4D4 | 
[V:2] c4d2e2f2d2 | 
[V:3] G4D8 | 
[V:4] z12 | 
[V:5] C,4_B,,8 | 
[V:1] C4c6B2 | 
[V:2] e6d2e4 | 
[V:3] A6B2c4 | 
[V:4] z12 | 
[V:5] A,,12 | 
[V:1] A6^G2G4 | 
[V:2] f4d4e4 | 
[V:3] d4B8 | 
[V:4] z12 | 
[V:5] z4z4E,4 | 
[V:1] A12 | 
[V:2] c4f6e2 | 
[V:3] A12- | 
[V:4] z4z4A4 | 
[V:5] F,4D,2E,2F,2D,2 | 
[V:1] z12 | 
[V:2] c2d2e8 | 
[V:3] A12 | 
[V:4] c6B2A2G2 | 
[V:5] A,4A,,2B,,2C,2A,,2 | 
[V:1] z4z4E4 | 
[V:2] d4c2d2e2c2 | 
[V:3] z12 | 
[V:4] F4E8 | 
[V:5] D,4A,,8 | 
[V:1] F4D2E2F2D2 | 
[V:2] d12 | 
[V:3] A8A4- | 
[V:4] D8A4 | 
[V:5] D,12 | 
[V:1] A4A,2B,2C2A,2 | 
[V:2] z12 | 
[V:3] A4F2G2A2F2 | 
[V:4] c8A4 | 
[V:5] z12 | 
[V:1] D4C2D2E2C2 | 
[V:2] z4z4e4 | 
[V:3] G4E8 | 
[V:4] B4G2A2B2G2 | 
[V:5] z12 | 
[V:1] D4A4F4 | 
[V:2] f4d2e2f2d2 | 
[V:3] D8A4 | 
[V:4] A8z4 | 
[V:5] D,8D,4 | 
[V:1] G4E2F2G2E2 | 
[V:2] e4c8 | 
[V:3] c6B2G4 | 
[V:4] E8E4 | 
[V:5] C,8C,4 | 
[V:1] F4E8 | 
[V:2] c4c8 | 
[V:3] A4E2F2G2E2 | 
[V:4] C4E8 | 
[V:5] F,,4C,2D,2E,2C,2 | 
[V:1] D4C2D2E2C2 | 
[V:2] A6B2c2A2 | 
[V:3] F4E8 | 
[V:4] D4A8 | 
[V:5] D,4A,,8 | 
[V:1] D12- | 
[V:2] _B4A8 | 
[V:3] D12- | 
[V:4] F12- | 
[V:5] D,,12- & D,12- | 
[V:1] D12 ||  
[V:2] A12 ||  
[V:3] D12 ||  
[V:4] F12 ||  
[V:5] D,,12 & D,12 ||  
[V:1]  [K:C] [K:clef=treble][M:2/1]z8 | 
[V:2]  [K:C] [K:clef=treble-8][M:2/1]A6B2 | 
[V:3]  [K:C] [K:clef=treble-8][M:2/1]z8 | 
[V:4]  [K:C] [K:clef=treble-8][M:2/1]z8 | 
[V:5]  [K:C] [K:clef=bass][M:2/1]A,6G,2 | 
[V:1] z8 | 
[V:2] c2d3cc2 | 
[V:3] z8 | 
[V:4] z8 | 
[V:5] F,4E,4 | 
[V:1] A8- | 
[V:2] d4d2c2- | 
[V:3] z8 | 
[V:4] z8 | 
[V:5] D,6E,2 | 
[V:1] A8 | 
[V:2] cBAGA4 | 
[V:3] z8 | 
[V:4] z8 | 
[V:5] F,2G,3^F,F,2 | 
[V:1] B8 | 
[V:2] G2d4e2- | 
[V:3] z8 | 
[V:4] z8 | 
[V:5] G,6E,2 | 
[V:1] G8 | 
[V:2] e2dcB4 | 
[V:3] z8 | 
[V:4] z8 | 
[V:5] E,8 | 
[V:1] A6GF | 
[V:2] A2f4ed | 
[V:3] z8 | 
[V:4] A8- | 
[V:5] z8 | 
[V:1] GFEDE4 | 
[V:2] e2d3^c^c2 | 
[V:3] z8 | 
[V:4] A8 | 
[V:5] z8 | 
[V:1] D2G4F2 | 
[V:2] d8 | 
[V:3] z8 | 
[V:4] B8 | 
[V:5] z2G,3F,D,2 | 
[V:1] G2FED4 | 
[V:2] z8 | 
[V:3] z8 | 
[V:4] G8 | 
[V:5] E,2D,C,B,,4 | 
[V:1] C8- | 
[V:2] e8- | 
[V:3] z8 | 
[V:4] A6GF | 
[V:5] A,,8- | 
[V:1] C8 | 
[V:2] e8 | 
[V:3] z8 | 
[V:4] GFEDE4 | 
[V:5] A,,8 | 
[V:1] z8 | 
[V:2] f8 | 
[V:3] z8 | 
[V:4] D4D3E | 
[V:5] z8 | 
[V:1] z8 | 
[V:2] d8 | 
[V:3] z8 | 
[V:4] F2G3FED | 
[V:5] z8 | 
[V:1] z4E3F | 
[V:2] e4e2c2- | 
[V:3] z8 | 
[V:4] C8 | 
[V:5] E,8- | 
[V:1] G2A4^G2 | 
[V:2] c2BAB4 | 
[V:3] z8 | 
[V:4] z8 | 
[V:5] E,8 | 
[V:1] A8 | 
[V:2] A4f4- | 
[V:3] z8 | 
[V:4] D6E2 | 
[V:5] F,8 | 
[V:1] A8 | 
[V:2] f4f4 | 
[V:3] z8 | 
[V:4] F2G2A3B | 
[V:5] D,8 | 
[V:1] G3AB2c2 | 
[V:2] e8 | 
[V:3] z8 | 
[V:4] c2B4E2- | 
[V:5] E,4E,2C,2- | 
[V:1] A4d4 | 
[V:2] e4d3e | 
[V:3] z8 | 
[V:4] E2A4^G2 | 
[V:5] C,2B,,A,,B,,4 | 
[V:1] c3BA2G2 | 
[V:2] f2e4d2 | 
[V:3] z8 | 
[V:4] A2c4B2 | 
[V:5] A,,8- | 
[V:1] F2EDF2E2- | 
[V:2] c2BAc2A2- | 
[V:3] z8 | 
[V:4] A2GFA3G | 
[V:5] A,,8- | 
[V:1] E2D3^CC2 | 
[V:2] AGF2E2A2- | 
[V:3] z8 | 
[V:4] F2D2E4 | 
[V:5] A,,8 | 
[V:1] D8- | 
[V:2] A2F2_B4 | 
[V:3] z8 | 
[V:4] D8- | 
[V:5] D,8- | 
[V:1] D8 ||  
[V:2] A8 ||  
[V:3] z8 ||  
[V:4] D8 ||  
[V:5] D,8 ||  
[V:1]  [K:C] [K:clef=treble][M:2/1]z8 | 
[V:2]  [K:C] [K:clef=treble-8][M:2/1]z8 | 
[V:3]  [K:C] [K:clef=treble-8][M:2/1]z8 | 
[V:4]  [K:C] [K:clef=treble-8][M:2/1]A4c4 | 
[V:5]  [K:C] [K:clef=bass][M:2/1]z8 | 
[V:1] z8 | 
[V:2] z8 | 
[V:3] z8 | 
[V:4] d4A4 | 
[V:5] D,4F,4 | 
[V:1] z8 | 
[V:2] z8 | 
[V:3] z8 | 
[V:4] z2d3cBA | 
[V:5] G,4D,4 | 
[V:1] z8 | 
[V:2] z8 | 
[V:3] z8 | 
[V:4] B2G2A4 | 
[V:5] z2G,4F,2 | 
[V:1] z8 | 
[V:2] z8 | 
[V:3] z8 | 
[V:4] G4z2c2- | 
[V:5] G,3F,E,D,E,2- | 
[V:1] z8 | 
[V:2] z8 | 
[V:3] z8 | 
[V:4] c2BAB2G2 | 
[V:5] E,2D,C,D,2E,2 | 
[V:1] z8 | 
[V:2] z8 | 
[V:3] z8 | 
[V:4] A4D2G2- | 
[V:5] A,,2D,4G,,2 | 
[V:1] z8 | 
[V:2] z8 | 
[V:3] z8 | 
[V:4] GAB2c2A2- | 
[V:5] C,2D,2E,2F,2 | 
[V:1] z8 | 
[V:2] z8 | 
[V:3] z8 | 
[V:4] A2d3cBA | 
[V:5] D,4F,3E, | 
[V:1] z8 | 
[V:2] z8 | 
[V:3] z8 | 
[V:4] B2A4^G2 | 
[V:5] D,C,B,,A,,B,,4 | 
[V:1] z8 | 
[V:2] z8 | 
[V:3] z8 | 
[V:4] A4z2E2- | 
[V:5] A,,8 | 
[V:1] z8 | 
[V:2] z8 | 
[V:3] z8 | 
[V:4] E2F2D2E2- | 
[V:5] z2A,,2B,,2G,,2 | 
[V:1] z8 | 
[V:2] z8 | 
[V:3] z8 | 
[V:4] EFG3FED | 
[V:5] A,,2B,,2C,3B,, | 
[V:1] z8 | 
[V:2] z8 | 
[V:3] z8 | 
[V:4] C2G2A2c2 | 
[V:5] A,,2G,,2F,,4 | 
[V:1] z8 | 
[V:2] z8 | 
[V:3] z8 | 
[V:4] B2A4F2 | 
[V:5] z2C,2D,2F,2 | 
[V:1] z8 | 
[V:2] z8 | 
[V:3] z8 | 
[V:4] GFEDE4 | 
[V:5] E,2D,4^C,2 | 
[V:1] z8 | 
[V:2] z8 | 
[V:3] z8 | 
[V:4] D2F2G2A2- | 
[V:5] D,4z2D,2 | 
[V:1] z8 | 
[V:2] z8 | 
[V:3] z8 | 
[V:4] A2B2c2A2- | 
[V:5] F,2G,2A,3G, | 
[V:1] z8 | 
[V:2] z8 | 
[V:3] z8 | 
[V:4] A2d3^c^c2 | 
[V:5] F,2E,D,E,4 | 
[V:1] z8 ||  
[V:2] z8 ||  
[V:3] z8 ||  
[V:4] d8 ||  
[V:5] D,8 ||  
[V:1]  [K:C] [K:clef=treble][M:2/1]A8 | 
[V:2]  [K:C] [K:clef=treble-8][M:2/1]d8 | 
[V:3]  [K:C] [K:clef=treble-8][M:2/1]F8 | 
[V:4]  [K:C] [K:clef=treble-8][M:2/1]A8 | 
[V:5]  [K:C] [K:clef=bass][M:2/1]D,8 | 
[V:1] B4A4 | 
[V:2] d8- | 
[V:3] G4A4 | 
[V:4] G4F4 | 
[V:5] G,,4D,4 | 
[V:1] d8 | 
[V:2] d4G4 | 
[V:3] _B8 | 
[V:4] G8 | 
[V:5] G,,8 | 
[V:1] c8- | 
[V:2] c2A2c3d | 
[V:3] A8- | 
[V:4] E8- | 
[V:5] A,,8- | 
[V:1] !fermata!c8 | 
[V:2] !fermata!e8 | 
[V:3] !fermata!A8 | 
[V:4] !fermata!E8 | 
[V:5] !fermata!A,,8 | 
[V:1] z4c4 | 
[V:2] z4e4 | 
[V:3] z4A4 | 
[V:4] z4E4 | 
[V:5] z4A,,4 | 
[V:1] c4B4 | 
[V:2] A4d4- | 
[V:3] A4G4 | 
[V:4] F4D2E2 | 
[V:5] F,,4G,,4 | 
[V:1] A8 | 
[V:2] d2e2f2ed | 
[V:3] F8 | 
[V:4] F2G2A4 | 
[V:5] D,8 | 
[V:1] A8- | 
[V:2] ^c4^c4 | 
[V:3] E8- | 
[V:4] A8- | 
[V:5] A,,8- | 
[V:1] !fermata!A8 | 
[V:2] !fermata!^c8 | 
[V:3] !fermata!E8 | 
[V:4] !fermata!A8 | 
[V:5] !fermata!A,,8 | 
[V:1] F8- & A8- | 
[V:2] d8- | 
[V:3] F8 | 
[V:4] A8- | 
[V:5] D,8- | 
[V:1] F8 & A8 |]  
[V:2] d8 |]  
[V:3] F8 |]  
[V:4] A8 |]  
[V:5] D,8 |]  



